elementary-xfce/devices/symbolic/video-display-symbolic.svg

<?xml version="1.0" encoding="UTF-8" standalone="no"?>
<svg
   xmlns:dc="http://purl.org/dc/elements/1.1/"
   xmlns:cc="http://creativecommons.org/ns#"
   xmlns:rdf="http://www.w3.org/1999/02/22-rdf-syntax-ns#"
   xmlns:svg="http://www.w3.org/2000/svg"
   xmlns="http://www.w3.org/2000/svg"
   height="16.004"
   width="16"
   id="svg2"
   version="1.1">
  <metadata
     id="metadata10">
    <rdf:RDF>
      <cc:Work
         rdf:about="">
        <dc:format>image/svg+xml</dc:format>
        <dc:type
           rdf:resource="http://purl.org/dc/dcmitype/StillImage" />
      </cc:Work>
    </rdf:RDF>
  </metadata>
  <defs
     id="defs8" />
  <path
     d="M1 1.004c-.554 0-1 .446-1 1v10c0 .554.446 1 1 1h5v1s0 1-1 1v1h6v-1c-1 0-1-1-1-1v-1h5c.554 0 1-.446 1-1v-10c0-.554-.446-1-1-1zM1.5 2h13s.5 0 .5.5v9c0 .5-.5.5-.5.5h-13c-.5 0-.5-.5-.5-.5v-9s0-.5.5-.5z"
     fill="#666"
     id="path4" />
</svg>

<?xml version="1.0" encoding="UTF-8" standalone="no"?>
<svg
   height="16"
   width="16"
   version="1.1"
   id="svg1"
   sodipodi:docname="video-display-symbolic.svg"
   inkscape:version="1.2.2 (b0a8486541, 2022-12-01)"
   xmlns:inkscape="http://www.inkscape.org/namespaces/inkscape"
   xmlns:sodipodi="http://sodipodi.sourceforge.net/DTD/sodipodi-0.dtd"
   xmlns="http://www.w3.org/2000/svg"
   xmlns:svg="http://www.w3.org/2000/svg">
  <sodipodi:namedview
     id="namedview3590"
     pagecolor="#ffffff"
     bordercolor="#000000"
     borderopacity="0.25"
     inkscape:showpageshadow="2"
     inkscape:pageopacity="0.0"
     inkscape:pagecheckerboard="0"
     inkscape:deskcolor="#d1d1d1"
     showgrid="false"
     inkscape:zoom="77.408842"
     inkscape:cx="3.8561486"
     inkscape:cy="12.427521"
     inkscape:window-width="1920"
     inkscape:window-height="1029"
     inkscape:window-x="0"
     inkscape:window-y="0"
     inkscape:window-maximized="1"
     inkscape:current-layer="svg1" />
  <defs
     id="defs1" />
  <path
     d="M 1,1 C 0.446,1 0,1.446 0,2 v 10 c 0,0.554 0.446,1 1,1 h 5 v 1 c 0,0 0,1 -1,1 v 1 h 6 v -1 c -1,0 -1,-1 -1,-1 v -1 h 5 c 0.554,0 1,-0.446 1,-1 V 2 C 16,1.446 15.554,1 15,1 Z m 0.5,1 h 13 c 0,0 0.5,0 0.5,0.5 v 9 C 15,12 14.5,12 14.5,12 H 1.5 C 1,12 1,11.5 1,11.5 v -9 C 1,2.5 1,2 1.5,2 Z"
     fill="#666"
     id="path1"
     style="fill:#555761"
     sodipodi:nodetypes="ssssccccccccsssssscsscsccs" />
</svg>
